icon-svg/ecowitt.svg

<svg xmlns="http://www.w3.org/2000/svg" fill="#44739e" viewBox="0 0 24 24"><path d="M19.216 15.2a3.4 3.4 0 0 1-.2-.037.8.8 0 0 1-.126-.163 3.6 3.6 0 0 0-3.42-1.492 3.4 3.4 0 0 0-2.67 1.762c-.084.165-.085.165-.207.165A3.324 3.324 0 0 0 9.5 17.556a2.714 2.714 0 0 0-.111 1.193 6.9 6.9 0 0 0 .72.014h.711l-.008-.052c0-.029-.018-.1-.03-.154a1.408 1.408 0 0 1 .732-1.642 2.7 2.7 0 0 1 1.486-.19l.1.009.116-.171a4.37 4.37 0 0 1 1.052-1.243 2.814 2.814 0 0 1 3.963.8 2.63 2.63 0 0 0 .337.49l.2.029c1.383.191 2.029.81 1.986 1.9l-.008.219h1.17l.011-.031a3.12 3.12 0 0 0 .037-.953 3.2 3.2 0 0 0-2.748-2.574m-1.892 2.319c-.159.041-.157.042-.212-.067a1.7 1.7 0 0 0-1.821-.778 1.545 1.545 0 0 0-1.107.8c-.029.071-.049.075-.195.04-.972-.233-1.993.342-2.018 1.135v.109h7.408v-.1a1.567 1.567 0 0 0-2.055-1.139m1.37-7.576c-.438.039-.911.27-.966.472-.1.365.253.591.588.377a.911.911 0 0 1 1.381.626.357.357 0 0 0 .708.034 1.45 1.45 0 0 0-.165-.626 1.63 1.63 0 0 0-1.546-.883m-1.067-.338a2.259 2.259 0 0 1 3.482 1.814.68.68 0 0 0 .046.286.439.439 0 0 0 .8-.005l.038-.086-.008-.251a3.134 3.134 0 0 0-3.435-2.987 3.2 3.2 0 0 0-1.395.487c-.215.14-.271.226-.271.417 0 .4.372.563.743.325m-6.71 3.288a5.12 5.12 0 0 0 1.824.13h1.023v-.738l-.933-.009a3.92 3.92 0 0 1-1.449-.116 1.326 1.326 0 0 1-.745-1.041.67.67 0 0 1-.009-.341c.009-.006 3.136-.025 3.136-.025v-.744l-3.164.041a1.789 1.789 0 0 1 .7-1.383c.254-.123.312-.128 1.469-.138l.995-.008v-.752h-1.9l-.2.019a2.208 2.208 0 0 0-2.084 2.23c-.143 1.459.369 2.561 1.337 2.875M8.913 7.527l-.037-2.469v-.1a.144.144 0 0 0-.093-.135l-.056-.021a.13.13 0 0 1-.027-.014l-.072-.05a.11.11 0 0 1-.028-.025l-.049-.058a.16.16 0 0 0-.062-.043l-.1-.034c0-.016.047-.09 0-.11a23.56 23.56 0 0 0-5.916 0c-.04.02.026.082.044.1l-.168.093a.11.11 0 0 0-.032.024l-.078.077a.136.136 0 0 1-.062.037l-.1.029-.087.039v2.767h.12v.058a.084.084 0 0 0 .084.084.085.085 0 0 1 .084.081v.019a.084.084 0 0 0 .085.081h.6a.145.145 0 0 1 .145.15l-.031.953a.143.143 0 0 1-.129.139l-.548.059a.144.144 0 0 0-.1.06l-.167.232a.17.17 0 0 0-.033.05 11.5 11.5 0 0 0 .158 2.532.143.143 0 0 0 .119.122 22.56 22.56 0 0 0 6.173-.03.143.143 0 0 0 .11-.124 11.4 11.4 0 0 0 .122-2.522.14.14 0 0 0-.027-.052l-.114-.142a.136.136 0 0 0-.063-.045l-.185-.069a.13.13 0 0 0-.028-.007l-.225-.035a.144.144 0 0 1-.123-.143V8.076a.144.144 0 0 1 .143-.144l.369-.005a.084.084 0 0 0 .083-.08v-.008a.084.084 0 0 1 .088-.08h.072l-.007-.088a.146.146 0 0 0 .148-.144m-2.025 1.6-.325-.052-.347-.015-1.082-.01-1.034.031-.347.042v-1.2h3.14zm.673.043-.274-.014v-1.23h.327zm.105 3.398a22.96 22.96 0 0 1-4.34 0 10.5 10.5 0 0 0-.831.8v.022c-.01.063-.017.117.011.14a7 7 0 0 0 3.084.442 6.06 6.06 0 0 0 2.87-.43.256.256 0 0 0 .019-.189 7.4 7.4 0 0 0-.813-.785m.411 1.357a11.9 11.9 0 0 1-2.49.236H5.55a11.5 11.5 0 0 1-2.644-.255 4.1 4.1 0 0 0-.326.346v.023c-.01.061-.017.117.011.141.479.4 2.713.533 4.314.38a2.83 2.83 0 0 0 1.44-.367.27.27 0 0 0 .018-.192 2.66 2.66 0 0 0-.286-.312m.123.812a5.07 5.07 0 0 1-1.283.253c-.41.039-.891.06-1.385.06a9.4 9.4 0 0 1-2.747-.314c-.043.06-.08.114-.1.156v.038c-.009.067-.022.168.017.21.436.467 2.41.639 3.909.5.9-.083 1.52-.265 1.661-.487a.477.477 0 0 0 .022-.28 1.6 1.6 0 0 0-.094-.136m-.121.785a5.06 5.06 0 0 1-1.457.312c-.352.033-.725.049-1.1.049a7.11 7.11 0 0 1-2.653-.4c-.041.06-.076.114-.1.157v.038c-.008.064-.021.169.017.212.411.459 2.28.633 3.7.5.885-.081 1.5-.264 1.633-.49a.493.493 0 0 0 .022-.282c-.018-.018-.041-.058-.062-.096M8 16.251a4.6 4.6 0 0 1-1.494.34c-.319.029-.657.044-1 .044a6.86 6.86 0 0 1-2.52-.378c-.042.063-.077.119-.1.163v.039c-.008.064-.021.17.017.213.4.459 2.158.631 3.553.506.862-.078 1.48-.266 1.613-.492a.53.53 0 0 0 .021-.284 1.6 1.6 0 0 0-.09-.151m-2.459 1.16a9.07 9.07 0 0 1-1.682-.145l.044.361.011.125c0 .018.006.084.014.16l.172 1.916a3.63 3.63 0 0 0 2.756-.058l.217-2.477c-.217.038-.429.062-.6.078-.303.029-.617.04-.932.04"/></svg>

<?xml version="1.0" encoding="UTF-8"?>
<svg width="24px" fill="#44739e" height="24px" viewBox="0 0 24 24" version="1.1" xmlns="http://www.w3.org/2000/svg" xmlns:xlink="http://www.w3.org/1999/xlink">
            <path d="m 19.216,15.2 c -0.1,-0.016 -0.185,-0.033 -0.2,-0.037 A 0.8,0.8 0 0 1 18.89,15 3.6,3.6 0 0 0 15.47,13.508 3.4,3.4 0 0 0 12.8,15.27 c -0.084,0.165 -0.085,0.165 -0.207,0.165 a 3.324,3.324 0 0 0 -3.093,2.121 2.714,2.714 0 0 0 -0.111,1.193 6.862,6.862 0 0 0 0.72,0.014 h 0.711 l -0.008,-0.052 c 0,-0.029 -0.018,-0.1 -0.03,-0.154 A 1.408,1.408 0 0 1 11.514,16.915 2.7,2.7 0 0 1 13,16.725 l 0.1,0.009 0.116,-0.171 a 4.368,4.368 0 0 1 1.052,-1.243 2.814,2.814 0 0 1 3.963,0.8 2.626,2.626 0 0 0 0.337,0.49 l 0.2,0.029 c 1.383,0.191 2.029,0.81 1.986,1.9 l -0.008,0.219 h 1.17 l 0.011,-0.031 A 3.124,3.124 0 0 0 21.964,17.774 3.2,3.2 0 0 0 19.216,15.2 Z m -1.892,2.319 c -0.159,0.041 -0.157,0.042 -0.212,-0.067 a 1.7,1.7 0 0 0 -1.821,-0.778 1.545,1.545 0 0 0 -1.107,0.8 c -0.029,0.071 -0.049,0.075 -0.195,0.04 -0.972,-0.233 -1.993,0.342 -2.018,1.135 v 0.109 h 7.408 v -0.1 a 1.567,1.567 0 0 0 -2.055,-1.139 z m 1.37,-7.576 c -0.438,0.039 -0.911,0.27 -0.966,0.472 -0.1,0.365 0.253,0.591 0.588,0.377 a 0.911,0.911 0 0 1 1.381,0.626 0.357,0.357 0 0 0 0.708,0.034 A 1.452,1.452 0 0 0 20.24,10.826 1.63,1.63 0 0 0 18.694,9.943 Z M 17.627,9.605 a 2.259,2.259 0 0 1 3.482,1.814 0.677,0.677 0 0 0 0.046,0.286 0.439,0.439 0 0 0 0.8,-0.005 l 0.038,-0.086 -0.008,-0.251 A 3.134,3.134 0 0 0 18.55,8.376 3.2,3.2 0 0 0 17.155,8.863 c -0.215,0.14 -0.271,0.226 -0.271,0.417 0,0.4 0.372,0.563 0.743,0.325 z m -6.71,3.288 a 5.122,5.122 0 0 0 1.824,0.13 h 1.023 V 12.285 L 12.831,12.276 A 3.923,3.923 0 0 1 11.382,12.16 1.326,1.326 0 0 1 10.637,11.119 0.668,0.668 0 0 1 10.628,10.778 c 0.009,-0.006 3.136,-0.025 3.136,-0.025 V 10.381 10.009 L 10.6,10.05 A 1.789,1.789 0 0 1 11.3,8.667 C 11.554,8.544 11.612,8.539 12.769,8.529 L 13.764,8.521 V 7.769 c 0,0 -1.874,0 -1.9,0 l -0.2,0.019 a 2.208,2.208 0 0 0 -2.084,2.23 c -0.143,1.459 0.369,2.561 1.337,2.875 z M 8.913,7.527 8.876,5.058 v -0.1 A 0.144,0.144 0 0 0 8.783,4.823 L 8.727,4.802 A 0.134,0.134 0 0 1 8.7,4.788 L 8.628,4.738 A 0.112,0.112 0 0 1 8.6,4.713 L 8.551,4.655 A 0.158,0.158 0 0 0 8.489,4.612 l -0.1,-0.034 c 0,-0.016 0.047,-0.09 0,-0.11 a 23.562,23.562 0 0 0 -5.916,0 c -0.04,0.02 0.026,0.082 0.044,0.1 L 2.349,4.661 A 0.108,0.108 0 0 0 2.317,4.685 L 2.239,4.762 A 0.136,0.136 0 0 1 2.177,4.799 L 2.077,4.828 1.99,4.867 v 2.767 h 0.12 v 0.058 a 0.084,0.084 0 0 0 0.084,0.084 0.085,0.085 0 0 1 0.084,0.081 v 0.019 a 0.084,0.084 0 0 0 0.085,0.081 h 0.6 a 0.145,0.145 0 0 1 0.145,0.15 L 3.077,9.06 A 0.143,0.143 0 0 1 2.948,9.199 L 2.4,9.258 A 0.144,0.144 0 0 0 2.3,9.318 L 2.133,9.55 A 0.171,0.171 0 0 0 2.1,9.6 11.505,11.505 0 0 0 2.258,12.132 0.143,0.143 0 0 0 2.377,12.254 22.564,22.564 0 0 0 8.55,12.224 0.143,0.143 0 0 0 8.66,12.1 11.406,11.406 0 0 0 8.782,9.578 0.136,0.136 0 0 0 8.755,9.526 L 8.641,9.384 A 0.136,0.136 0 0 0 8.578,9.339 L 8.393,9.27 A 0.128,0.128 0 0 0 8.365,9.263 L 8.14,9.228 A 0.144,0.144 0 0 1 8.017,9.085 V 8.076 A 0.144,0.144 0 0 1 8.16,7.932 L 8.529,7.927 A 0.084,0.084 0 0 0 8.612,7.847 V 7.839 A 0.084,0.084 0 0 1 8.7,7.759 H 8.772 L 8.765,7.671 v 0 A 0.146,0.146 0 0 0 8.913,7.527 Z M 6.888,9.127 6.563,9.075 6.216,9.06 5.134,9.05 4.1,9.081 3.753,9.123 v -1.2 h 3.14 z M 7.561,9.17 7.287,9.156 v -1.23 h 0.327 z m 0.105,3.398 a 22.963,22.963 0 0 1 -4.34,0 10.536,10.536 0 0 0 -0.831,0.8 v 0.022 c -0.01,0.063 -0.017,0.117 0.011,0.14 a 7,7 0 0 0 3.084,0.442 6.062,6.062 0 0 0 2.87,-0.43 0.256,0.256 0 0 0 0.019,-0.189 7.381,7.381 0 0 0 -0.813,-0.785 z m 0.411,1.357 a 11.892,11.892 0 0 1 -2.49,0.236 H 5.55 A 11.488,11.488 0 0 1 2.906,13.906 4.086,4.086 0 0 0 2.58,14.252 v 0.023 c -0.01,0.061 -0.017,0.117 0.011,0.141 0.479,0.4 2.713,0.533 4.314,0.38 A 2.831,2.831 0 0 0 8.345,14.429 0.269,0.269 0 0 0 8.363,14.237 2.658,2.658 0 0 0 8.077,13.925 Z M 8.2,14.737 A 5.066,5.066 0 0 1 6.917,14.99 c -0.41,0.039 -0.891,0.06 -1.385,0.06 A 9.4,9.4 0 0 1 2.785,14.736 c -0.043,0.06 -0.08,0.114 -0.1,0.156 v 0.038 c -0.009,0.067 -0.022,0.168 0.017,0.21 0.436,0.467 2.41,0.639 3.909,0.5 0.9,-0.083 1.52,-0.265 1.661,-0.487 A 0.477,0.477 0 0 0 8.294,14.873 1.546,1.546 0 0 0 8.2,14.737 Z m -0.121,0.785 a 5.058,5.058 0 0 1 -1.457,0.312 c -0.352,0.033 -0.725,0.049 -1.1,0.049 a 7.106,7.106 0 0 1 -2.653,-0.4 c -0.041,0.06 -0.076,0.114 -0.1,0.157 v 0.038 c -0.008,0.064 -0.021,0.169 0.017,0.212 0.411,0.459 2.28,0.633 3.7,0.5 0.885,-0.081 1.5,-0.264 1.633,-0.49 A 0.493,0.493 0 0 0 8.141,15.618 C 8.123,15.6 8.1,15.56 8.079,15.522 Z M 8,16.251 a 4.594,4.594 0 0 1 -1.494,0.34 c -0.319,0.029 -0.657,0.044 -1,0.044 a 6.857,6.857 0 0 1 -2.52,-0.378 c -0.042,0.063 -0.077,0.119 -0.1,0.163 v 0.039 c -0.008,0.064 -0.021,0.17 0.017,0.213 0.4,0.459 2.158,0.631 3.553,0.506 0.862,-0.078 1.48,-0.266 1.613,-0.492 A 0.528,0.528 0 0 0 8.09,16.402 1.578,1.578 0 0 0 8,16.251 Z m -2.459,1.16 A 9.072,9.072 0 0 1 3.859,17.266 l 0.044,0.361 0.011,0.125 v 0 c 0,0.018 0.006,0.084 0.014,0.16 L 4.1,19.828 A 3.63,3.63 0 0 0 6.856,19.77 l 0.217,-2.477 c -0.217,0.038 -0.429,0.062 -0.6,0.078 -0.303,0.029 -0.617,0.04 -0.932,0.04 z"/>

</svg>
